apps/scalable/nylas-mail.svg

<svg xmlns="http://www.w3.org/2000/svg" style="isolation:isolate" width="256" height="256"><defs><filter id="a" width="270.648" height="254.338" x="-7.32" y="2.95" filterUnits="userSpaceOnUse"><feGaussianBlur xmlns="http://www.w3.org/2000/svg" in="SourceGraphic" stdDeviation="4.294"/><feOffset xmlns="http://www.w3.org/2000/svg" dy="4" result="pf_100_offsetBlur"/><feFlood xmlns="http://www.w3.org/2000/svg" flood-opacity=".4"/><feComposite xmlns="http://www.w3.org/2000/svg" in2="pf_100_offsetBlur" operator="in" result="pf_100_dropShadow"/><feBlend xmlns="http://www.w3.org/2000/svg" in="SourceGraphic" in2="pf_100_dropShadow"/></filter></defs><path fill="#37A6E6" d="M165.685 11.947c74.055 0 84.639 10.557 84.639 84.544v59.251c0 73.986-10.584 84.543-84.639 84.543h-75.37c-74.055 0-84.639-10.557-84.639-84.543V96.491c0-73.987 10.584-84.544 84.639-84.544h75.37z" filter="url(#a)"/><path fill="#FFF" d="M128 11.947v228.338h37.685c74.055 0 84.639-10.557 84.639-84.543V96.491c0-73.987-10.584-84.544-84.639-84.544H128z" opacity=".2"/><defs><filter id="b" width="220" height="169.998" x="18" y="43" filterUnits="userSpaceOnUse"><feGaussianBlur xmlns="http://www.w3.org/2000/svg" stdDeviation="4.294"/></filter></defs><path fill="#111" fill-rule="evenodd" d="M28 147.445l88.888 33.335v22.219L28 169.668v-22.223zm0-44.446l88.888 33.335v22.223L28 125.222v-22.223zm0-44.442l88.888 33.331v22.223L28 80.776V58.557zm111.112 83.332L228 175.224v22.219l-88.888-33.331v-22.223zm0-44.446L228 130.778v22.223l-88.888-33.335V97.443zm0-44.442L228 86.332v22.223L139.112 75.22V53.001z" opacity=".4" filter="url(#b)"/><g fill="#FFF" fill-rule="evenodd"><path d="M28 147.445l88.888 33.335v22.219L28 169.668v-22.223zM28 102.999l88.888 33.335v22.223L28 125.222v-22.223zM28 58.557l88.888 33.331v22.223L28 80.776V58.557zM139.112 141.889L228 175.224v22.219l-88.888-33.331v-22.223zM139.112 97.443L228 130.778v22.223l-88.888-33.335V97.443zM139.112 53.001L228 86.332v22.223L139.112 75.22V53.001z"/></g><g opacity=".4"><linearGradient id="c" x1=".517" x2=".517" y2="1"><stop offset="0%" stop-color="#fff"/><stop offset="12.5%" stop-opacity=".098" stop-color="#fff"/><stop offset="92.5%" stop-opacity=".098"/><stop offset="100%" stop-opacity=".498"/></linearGradient><path fill="none" stroke="url(#c)" stroke-linecap="round" stroke-linejoin="round" stroke-width="4.077" d="M165.685 11.947c74.055 0 84.639 10.557 84.639 84.544v59.251c0 73.986-10.584 84.543-84.639 84.543h-75.37c-74.055 0-84.639-10.557-84.639-84.543V96.491c0-73.987 10.584-84.544 84.639-84.544h75.37z" vector-effect="non-scaling-stroke"/></g></svg>

<svg xmlns="http://www.w3.org/2000/svg" style="isolation:isolate" width="256" height="256" viewBox="0 0 256 256">
 <defs>
  <filter id="U9cTRohnCY7crdlEbQClCmAfHn6YoVyh" width="270.648" height="254.338" x="-7.32" y="2.95" filterUnits="userSpaceOnUse">
   <feGaussianBlur xmlns="http://www.w3.org/2000/svg" in="SourceGraphic" stdDeviation="4.294"/>
   <feOffset xmlns="http://www.w3.org/2000/svg" dx="0" dy="4" result="pf_100_offsetBlur"/>
   <feFlood xmlns="http://www.w3.org/2000/svg" flood-opacity=".4"/>
   <feComposite xmlns="http://www.w3.org/2000/svg" in2="pf_100_offsetBlur" operator="in" result="pf_100_dropShadow"/>
   <feBlend xmlns="http://www.w3.org/2000/svg" in="SourceGraphic" in2="pf_100_dropShadow" mode="normal"/>
  </filter>
 </defs>
 <g filter="url(#U9cTRohnCY7crdlEbQClCmAfHn6YoVyh)">
  <path fill="#37A6E6" d="M 165.685 11.947 C 239.74 11.947 250.324 22.504 250.324 96.491 L 250.324 155.742 C 250.324 229.728 239.74 240.285 165.685 240.285 L 90.315 240.285 C 16.26 240.285 5.676 229.728 5.676 155.742 L 5.676 96.491 C 5.676 22.504 16.26 11.947 90.315 11.947 L 165.685 11.947 Z"/>
 </g>
 <g opacity=".2">
  <path fill="#FFFFFF" d="M 128 11.947 L 128 240.285 L 165.685 240.285 C 239.74 240.285 250.324 229.728 250.324 155.742 L 250.324 96.491 C 250.324 22.504 239.74 11.947 165.685 11.947 L 128 11.947 Z"/>
 </g>
 <defs>
  <filter id="ltsYbLrR6rxNuckplWcJqk3OAbViuK8v" width="220" height="169.998" x="18" y="43" filterUnits="userSpaceOnUse">
   <feGaussianBlur xmlns="http://www.w3.org/2000/svg" stdDeviation="4.294"/>
  </filter>
 </defs>
 <g opacity=".4" filter="url(#ltsYbLrR6rxNuckplWcJqk3OAbViuK8v)">
  <path fill="#111111" fill-rule="evenodd" d="M 28 147.445 L 116.888 180.78 L 116.888 202.999 L 28 169.668 L 28 147.445 L 28 147.445 L 28 147.445 L 28 147.445 L 28 147.445 Z M 28 102.999 L 116.888 136.334 L 116.888 158.557 L 28 125.222 L 28 102.999 L 28 102.999 L 28 102.999 L 28 102.999 L 28 102.999 Z M 28 58.557 L 116.888 91.888 L 116.888 114.111 L 28 80.776 L 28 58.557 L 28 58.557 L 28 58.557 L 28 58.557 Z M 139.112 141.889 L 228 175.224 L 228 197.443 L 139.112 164.112 L 139.112 141.889 L 139.112 141.889 L 139.112 141.889 Z M 139.112 97.443 L 228 130.778 L 228 153.001 L 139.112 119.666 L 139.112 97.443 L 139.112 97.443 Z M 139.112 53.001 L 228 86.332 L 228 108.555 L 139.112 75.22 L 139.112 53.001 Z"/>
 </g>
 <g>
  <path fill="#FFFFFF" fill-rule="evenodd" d="M 28 147.445 L 116.888 180.78 L 116.888 202.999 L 28 169.668 L 28 147.445 Z"/>
  <path fill="#FFFFFF" fill-rule="evenodd" d="M 28 102.999 L 116.888 136.334 L 116.888 158.557 L 28 125.222 L 28 102.999 Z"/>
  <path fill="#FFFFFF" fill-rule="evenodd" d="M 28 58.557 L 116.888 91.888 L 116.888 114.111 L 28 80.776 L 28 58.557 Z"/>
  <path fill="#FFFFFF" fill-rule="evenodd" d="M 139.112 141.889 L 228 175.224 L 228 197.443 L 139.112 164.112 L 139.112 141.889 Z"/>
  <path fill="#FFFFFF" fill-rule="evenodd" d="M 139.112 97.443 L 228 130.778 L 228 153.001 L 139.112 119.666 L 139.112 97.443 Z"/>
  <path fill="#FFFFFF" fill-rule="evenodd" d="M 139.112 53.001 L 228 86.332 L 228 108.555 L 139.112 75.22 L 139.112 53.001 Z"/>
 </g>
 <g opacity=".4">
  <linearGradient id="_lgradient_25" x1=".517" x2=".517" y1="0" y2="1">
   <stop offset="0%" style="stop-color:rgb(255,255,255)"/>
   <stop offset="12.5%" stop-opacity=".098" style="stop-color:rgb(255,255,255)"/>
   <stop offset="92.5%" stop-opacity=".098" style="stop-color:rgb(0,0,0)"/>
   <stop offset="100%" stop-opacity=".498" style="stop-color:rgb(0,0,0)"/>
  </linearGradient>
  <path fill="none" stroke="url(#_lgradient_25)" stroke-linecap="round" stroke-linejoin="round" stroke-width="4.077" d="M 165.685 11.947 C 239.74 11.947 250.324 22.504 250.324 96.491 L 250.324 155.742 C 250.324 229.728 239.74 240.285 165.685 240.285 L 90.315 240.285 C 16.26 240.285 5.676 229.728 5.676 155.742 L 5.676 96.491 C 5.676 22.504 16.26 11.947 90.315 11.947 L 165.685 11.947 Z" vector-effect="non-scaling-stroke"/>
 </g>
</svg>
